X: 295
T:gan ainm 30/11/00
T:Kitty come over ...?
T:Fasten the Leg...?
R:jig
S:Mike's playing
Z:Lesl
M:6/8
L:1/8
K:G
GGA|B2A BGD|GBd ~g3|ded BGA|BAG AGA|
B2A BGD|GBd g2g|ded BGA|BGG G2A||
B{c}BA BGD|GBd ~g3|ded BGA|BAG AGA|
B2A BGD|GBd ~g3|ded BGA|BGG G2B||
|:d2g gfg|e2a aga|bge dBG|BAG AB^c|
d2g gfg|e2a aga|bge dBA|1 BGF G2B:|2 BGG G3||
<end>
<start>
